X:1
T:Title
%%score { 1 | 2 }
L:1/8
Q:1/4=100
M:4/4
K:Bb
V:1 treble nm="Grand Piano"
V:2 bass 
V:1
 [DF]>[EG] [DF]>[DB] [Fd]2 [B,FB]2 | [B,EG]>[B,FA] [B,GB]>[B,EG] [B,DF]4 | %2
w: R.~A.~Glenn * * * * *||
 [DFB]>[DFB] [DFB]>[DFB] [B,FB]2 [Fd]2 | [Fc]6 z2 | [DF]>[EG] [DF]>[DB] [Fd]2 [FB]2 | %5
w: |||
 [EG]>[FA] [GB]>[EG] [DF]4 | [DF]>[DF] [DB]>[Ec] [Fd]2 [FB]2 | c>B G>A [DB]4 | c>c c>c A2 F2 | %9
w: ||||
 [Fd]>[Fd] [Fd]>[Fc] [FB]4 | G>G G>G [GB]2 G2 | F>B c>d c4 | [Fd]>[Fd] [Fd]>[Fc] [FB]2 [FA]2 | %13
w: ||||
 [EG]>[EG] [GB]>[EG] [DF]4 | [DF]>[DF] [DB]>[Ec] [Fd]2 [FB]2 | c>B G>A [DB]4 |] %16
w: |||
V:2
 [B,,B,]>[B,,B,] [B,,B,]>[B,,B,] [B,,B,]2 D,2 | E,>E, E,>E, B,,4 | B,,>B,, B,,>B,, D,2 [B,,B,]2 | %3
 [F,A,]6 z2 | [B,,B,]>[B,,B,] [B,,B,]>[B,,F,] [B,,B,]2 [D,B,]2 | %5
 [E,B,]>[E,B,] [E,B,]>[E,B,] [B,,B,]4 | [B,,B,]>[B,,B,] [B,,F,]>[B,,F,] [B,,B,]2 [D,B,]2 | %7
 [E,B,E]>[E,G,E] [E,B,E]>[F,E] [B,,F,]4 | [F,A,F]>[F,A,F] [F,A,F]>[F,A,F] [F,CF]2 [F,A,]2 | %9
 [B,,B,]>[B,,B,] [B,,B,]>[C,A,] [D,B,]4 | [E,B,E]>[E,B,E] [E,B,E]>[E,B,E] [E,B,]2 [E,B,E]2 | %11
 [F,B,D]>[F,B,D] [F,A,E]>[F,B,F] [F,A,F]4 | [B,,B,]>[B,,B,] [B,,B,]>[C,A,] [D,B,]2 [D,B,]2 | %13
 [E,B,]>[E,B,] [E,B,]>[E,B,] [B,,B,]4 | [B,,B,]>[B,,B,] [B,,B,]>[B,,B,] [B,,B,]2 [D,B,]2 | %15
 [E,B,E]>[E,G,E] [E,B,E]>[F,F] [B,,F,]4 |] %16

